X:1
T:Title
%%score { ( 1 3 ) | ( 2 4 ) }
L:1/8
M:6/8
K:Ab
V:1 treble nm="Grand Piano"
V:3 treble 
V:2 bass 
V:4 bass 
V:1
 z3 z2[Q:1/4=84] [CE] | [Ec][DB][CA] [CE]2 C | F3 [CE]2 [CE] | EG[GB] d2 B |[M:5/8] c-c- c3 | %5
[M:1/8] [CE] |[M:3/4] [Ec][DB] [CA] [CE]2 C | G3 F2 F | EG Bd dG |[M:5/8] [CEA]-[CEA]- [CEA]3 | %10
[M:1/8] [CE] |[M:3/4] [CE][CE] [CE] [CE]2 [DF] | [CE]6 | [CEA][CEA] AA GA | B6 | %15
 [Ec][DB] [CA][CE] [CE]C | G3 F2 F | EG Bd dG |[M:5/8] [CEA]-[CEA]- [CEA]3 |] %19
V:2
 z3 z2 [A,,A,] | [A,,A,][A,,A,][A,,A,] [A,,A,]2 [A,,A,] | [D,A,D]3 [A,,A,]2 [A,,A,] | %3
 [E,G,][E,B,E][E,D] [E,G,E]2 [E,G,E] |[M:5/8] [A,E]-[A,E]- [A,E]3 |[M:1/8] [A,,A,] | %6
[M:3/4] [A,,A,][A,,A,] [A,,A,] [A,,A,]2 [A,,A,] | [D,A,D]3 [D,A,D]2 [D,A,D] | %8
 [E,A,C][E,B,E] [E,DE][E,G,E] [E,B,E][E,DE] |[M:5/8] [A,,A,]-[A,,A,]- [A,,A,]3 |[M:1/8] [A,,A,] | %11
[M:3/4] [A,,A,][A,,A,] [A,,A,] [A,,A,]2 [A,,A,] | [A,,A,]6 | A,,C, [E,CE][A,DE] [B,DE][A,CE] | %14
 [E,D]6 | [A,,A,][A,,A,] [A,,A,][A,,A,] [A,,A,][A,,A,] | [D,A,D]3 [D,A,D]2 [D,A,D] | %17
 [E,A,C][E,B,E] [E,DE][E,G,E] [E,B,E][E,DE] |[M:5/8] [A,,A,]-[A,,A,]- [A,,A,]3 |] %19
V:3
 x6 | x6 | x6 | x6 |[M:5/8] x5 |[M:1/8] x |[M:3/4] x6 | x6 | x6 |[M:5/8] x5 |[M:1/8] x | %11
[M:3/4] x6 | x6 | x6 | z2 z G,2 [CE] | x6 | x6 | x6 |[M:5/8] x5 |] %19
V:4
 x6 | x6 | x6 | x6 |[M:5/8] x5 |[M:1/8] x |[M:3/4] x6 | x6 | x6 |[M:5/8] x5 |[M:1/8] x | %11
[M:3/4] x6 | x6 | x6 | B,4 z [A,,A,] | x6 | x6 | x6 |[M:5/8] x5 |] %19

